icons/tag-outline.svg

<svg xmlns="http://www.w3.org/2000/svg" width="24" height="24" viewBox="0 0 24 24">
  <path d="M13,2 L5,2 C3.34314575,2 2,3.34314575 2,5 L2,13 C2,13.2652165 2.10535684,13.5195704 2.29289322,13.7071068 L9.87867966,21.2928932 C11.0502525,22.4644661 12.9497475,22.4644661 14.1213203,21.2928932 L21.2928932,14.1213203 C22.4644661,12.9497475 22.4644661,11.0502525 21.2928932,9.87867966 L13.7071068,2.29289322 C13.5195704,2.10535684 13.2652165,2 13,2 Z M5,4 L12.585,4 L19.8786797,11.2928932 C20.2692039,11.6834175 20.2692039,12.3165825 19.8786797,12.7071068 L12.7071068,19.8786797 L12.6128994,19.9618683 C12.2206082,20.2668932 11.6533772,20.2391636 11.2928932,19.8786797 L4,12.585 L4,5 C4,4.44771525 4.44771525,4 5,4 Z"/>
</svg>

<svg xmlns="http://www.w3.org/2000/svg" viewBox="0 0 24 24">
  <path d="M13 2H5a3 3 0 0 0-3 3v8c0 .27.1.52.3.7l7.58 7.6a3 3 0 0 0 4.24 0l7.17-7.18a3 3 0 0 0 0-4.24l-7.58-7.59A1 1 0 0 0 13 2zM5 4h7.59l7.29 7.3a1 1 0 0 1 0 1.4l-7.17 7.18-.1.08a1 1 0 0 1-1.32-.08L4 12.58V5a1 1 0 0 1 1-1z"/>
</svg>
